X: 21251
T: Fair Sally lov'd a bonny seaman
%R: air, waltz, minuet
B: James Oswald "The Caledonian Pocket Companion" v.2 p.125 #1
Z: 2018 John Chambers <jc:trillian.mit.edu>
M: 3/4
L: 1/16
K: Em
"_Slow"z2B2e2f2 |\
(g4 f2)e2^d2e2 | f2B2 z2c2B2A2 | (G4 F2)E2G2A2 | B4 z2B2e2f2 |\
(g4 f2)e2f2g2 | a2d2 z2g2c2B2 | (B4 A2)a2d2f2 | g6 B2d2B2 |
(A4 ^G2)=f2e2d2 | c6 B2c2A2 | (a4 g2)f2g2e2 | Te4 H^d4 z4 |\
e4 (B2AG) A2B2 | G2E2 :: z2B2 (eg)(fa) | g4 (egf)a Tg2fe |
b2B2 z2(ge) (dBA)B |\
G2(FG) E(GFA) (GBAB) |B4 z2B2 (egfa) | g4 f2e2 (fagb) | (af)d2 z2(gf) (edcB) |\
(B4 A2)(ac') (bagf) |
g6 B2 (dcBA) |\
(A4 ^G2)(d=f) (edcB) | c6 (Bc) (AcBA) |\
a4 (gf)(c'b) (agfe) | (Te3^d/e/) d4 Hz4 | e3(f/g/) ({c}B2AG) A2B2 | G2E2 :|
